!!!!SEGMENT: 059-1-BR-001.krn
!!!COM: Chopin, Fryderyk
!!!OTL: Mazurka No. 1
!!!OPS: Op. 59
!!!PTL: 3 MAZURKAS POUR PIANO
!!!PPR: Brandus
!!!PPP: Paris
!!!NIFC-rismID: 300605158
!!!NIFC-shelfmark: PL-Wbfc 1672/n
!!!OMD: TROIS MAZURKAS. par F. CHOPIN
!!!OMD: No. 1 .
!!!OMD: PIANO.
!!!OMD: Moderato.
**kern	**kern	**fing	**dynam
*part1	*part1	*	*part1
*staff2	*staff1	*	*
*clefF4	*clefG2	*	*
*k[]	*k[]	*	*
*a:	*a:	*	*
*M3/4	*M3/4	*	*
*	*	*	*
=1-	=1-	=1-	=1-
2.rF	N(>8eeL	.	p
.	8bJ	.	.
.	4cc	.	.
.	4a\	.	.
=2	=2	=2	=2
4r	8bL	.	.
.	8g#XJ	.	.
4r	2e	.	.
4d 4B 4EN)	.	.	.
=3	=3	=3	=3
4r	(>8f#XL	.	<
.	8g#XJ	.	.
4d 4F#X 4E	4a	.	.
4d 4G#X 4E	4b/	.	.
=4	=4	=4	=4
*ped	*	*	*
4AA	8ccL	.	.
.	8ffnJ	.	.
4c 4E	2ee)	.	.
.	.	.	[
4AA-X	.	.	.
*Xped	*	*	*
.	.	.	.
=5	=5	=5	=5
*ped	*	*	*
4GG	(>8ggL	.	.
.	8ddJ	.	.
4e 4G	4ee	.	.
*Xped	*	*	*
4a 4e 4c	4cc	.	.
=6	=6	=6	=6
4r	8ddL	.	.
.	8bJ	.	.
4f 4d 4G	2g)	.	.
4f 4B 4G	.	.	.
!!LO:LB:g=original
=7	=7	=7	=7
4r	(>8aL\	.	.
.	8bJ	.	.
4f 4A 4G	4cc	.	.
4f 4B 4G	4dd	.	.
=8	=8	=8	=8
*ped	*	*	*
4C	8.eeL	.	<
.	16ff#XJk	.	.
.	16qqee/LL	.	.
.	16qqff#/JJ	.	.
!	!LO:TX:b:B:t=ten.	!	!
4e 4A#X 4F#X	2ff#T	.	.
4C	.	.	[
*Xped	*	*	*
.	.	.	.
.	16qqee/LL	.	.
.	16qqff#/JJ	.	.
=9	=9	=9	=9
*ped	*	*	*
4BB	8gg#XL	.	.
.	8bJ	.	.
4e 4B 4G#X	4gg#	.	.
4d#X 4B 4A	8ff#XL	.	.
*Xped	*	*	*
.	8gg#J	.	.
=10	=10	=10	=10
*ped	*	*	*
4E	8eeL)	.	.
.	16r	.	.
.	(>16bJk	.	.
4g#X 4e 4B 4G#X	2ee	.	.
4gn 4c#X 4A	.	.	.
*Xped	*	*	*
.	.	.	.
=11	=11	=11	=11
*ped	*	*	*
4D	8ffL	.	.
.	8aJ	.	.
4f 4d 4A	4dd	.	.
4d 4G#X 4E	8.bL	.	.
*Xped	*	*	*
.	16ccJk	.	.
=12	=12	=12	=12
.	8qb/	.	.
*^	*	*	*
*ped	*	*	*	*
(>4r	2.AA	8a\L)	.	.
.	.	16r	.	.
.	.	(>16g#XJk	.	.
4c 4E	.	[>2a)\	.	.
4c 4E)	.	.	.	.
*Xped	*	*	*	*
.	.	.	.	.
*v	*v	*	*	*
!!LO:LB:g=original
=13:|!	=13:|!	=13:|!	=13:|!
*ped	*	*	*
4BB	4a]	.	.
4d#X 4B 4A	(>8f#XL	.	.
.	8g#X	.	.
4d# 4B 4A	8a	.	.
*Xped	*	*	*
.	8ff#XJ	.	.
=14	=14	=14	=14
*ped	*	*	*
4EE	8ee/L	.	.
.	8aJ	.	.
4e 4B 4G#X	[>2g#X)	.	.
4e 4B 4G#	.	.	.
*Xped	*	*	*
.	.	.	.
=15	=15	=15	=15
*ped	*	*	*
4BB-X	(>8a-XL]	.	.
.	8qb-X/	.	.
.	8a-	.	.
4d 4B-X 4A-X	8f	.	.
.	8g	.	.
4d 4B- 4A-	8a-	.	.
*Xped	*	*	*
.	8ffJ	.	.
=16	=16	=16	=16
*ped	*	*	*
4EE-X	8ee-X/L	.	.
.	8a-XJ	.	.
4e-X 4B-X 4G	4.g	.	.
4e- 4B- 4G	.	.	.
*Xped	*	*	*
.	8f#X)	.	.
=17	=17	=17	=17
*ped	*	*	*
4AA	(>8gL	.	.
.	8qa/	.	.
.	8gJ	.	.
4c#X 4A 4G	8eL	.	.
.	8f#X	.	.
4c# 4A 4G	8g	.	.
*Xped	*	*	*
.	8eeJ	.	.
=18	=18	=18	=18
*ped	*	*	*
4AA	8ddL	.	.
.	8g	.	.
4d 4A 4F#X	8f#X	.	.
.	8g	.	.
4d 4B 4Fn	8g#X	.	.
*Xped	*	*	*
.	8bJ	.	.
!!LO:LB:g=original
=19	=19	=19	=19
*ped	*	*	*
4AA	8.aL	.	.
.	16d#Xk	.	.
4c#X 4A 4G	8.f#X	.	.
.	16ek	.	.
4c# 4A 4G	8.g	.	.
*Xped	*	*	*
.	16BJk	.	<
=20	=20	=20	=20
*ped	*	*	*
4AAA	8.AL)	.	.
.	(>16ek	.	.
4A 4F#X	8.d	.	.
.	16gk	.	.
4d 4A 4F#	8.f#X	.	.
*Xped	*	*	*
.	16bJk	.	.
.	.	.	[
=21	=21	=21	=21
*ped	*	*	*
4AA	12aL	.	.
.	12b	.	.
.	12aJ	.	.
4c#X 4E	8.g#XL	.	.
.	16gnk	.	.
4g 4c# 4A	8.a	.	.
*Xped	*	*	*
.	16eeJk	.	.
=22	=22	=22	=22
*ped	*	*	*
4DD	8.ddL	.	.
.	16gk	.	.
4c 4A 4D	8.f#X	.	.
.	16gk	.	.
(>[>4c [>4F#X [<4D	8.g#X	.	.
*Xped	*	*	*
.	16bJk	.	.
=23	=23	=23	=23
4c] 4F#X] 4D]	8.aL	.	.
.	16e#Xk	.	.
4c 4A 4D#X	8.f#X	.	.
.	16gk	.	.
[>4c [>4F# [<4D#	8.g#X	.	.
.	16bJk	.	.
=24	=24	=24	=24
*^	*	*	*
*	*^	*	*	*
2c]	4F#X]	2D#X]	12aL	.	.
.	.	.	12b	.	.
.	.	.	12aJ	.	.
.	4A)	.	8.f#XL	.	.
.	.	.	16gk	.	.
4ryy	4r	4ryy	8.g#X	.	.
.	.	.	16bJk	.	.
*	*v	*v	*	*	*
*v	*v	*	*	*
!!LO:PB:g=original
=25	=25	=25	=25
*	*	*	*^
8qE/	.	.	.	.
!	!	!	!	!LO:HP:b=2
(>8eL	8.aL	.	>	>
8BJ	.	.	.	.
.	16gk	2	.	.
!	!LO:TX:a:t=P:problem:podmiana palców z łukiem	!	!	!
4c	8.g	1-3	.	.
.	16fk	2	.	.
!	!LO:TX:a:t=P:problem:podmiana palców z łukiem	!	!	!
4A	8.f	1-3	.	.
.	16d#XJk	.	.	.
.	.	.	]	.
=26	=26	=26	=26	=26
*^	*	*	*	*
*	*	*^	*	*	*
8.B/L	2ryy	8.d#XL	2ryy	.	.	.
16G#XJk	.	16eJk	.	.	.	.
[>2E)	.	2e^<)	.	.	.	]
*	*	*	*	*	*v	*v
.	4BB 4EE	.	4dn 4G#X	.	.
*v	*v	*	*	*	*
=27	=27	=27	=27	=27
4E] 4BB 4EE	(>8f#XL	4d 4G#X	.	.
.	8g#XJ	.	.	<
4r	4a	2ryy	.	.
4d 4G#X 4E	4b/	.	.	.
*	*v	*v	*	*
=28	=28	=28	=28
*ped	*	*	*
4AA	8ccL	.	.
.	8ffn	.	.
4c 4E	8ee	.	.
.	8cc	.	.
4AA-X	8ee	.	.
*Xped	*	*	*
.	8ff#XJ	.	.
.	.	.	[
=29	=29	=29	=29
*ped	*	*	*
4GG	8ggL	.	.
.	8dd	.	.
4e 4c 4G	8ee	.	.
.	8b	.	.
4a 4e 4c	8cc	.	.
*Xped	*	*	*
.	8aJ	.	.
=30	=30	=30	=30
4r	8ddL	.	.
.	8bJ	.	.
4f 4d 4G	2g)	.	>
4f 4B 4G	.	.	]
!!LO:LB:g=original
=31	=31	=31	=31
4r	(>8a\L	.	<
.	8bJ	.	.
4f 4A 4G	4cc	.	.
4f 4B 4G	4dd	.	.
=32	=32	=32	=32
*ped	*	*	*
4C	8.eeL	.	.
.	16ff#XJk	.	.
.	16qqee/LL	.	.
.	16qqff#/JJ	.	.
!	!LO:TX:b:B:t=ten.	!	!
4e 4A#X 4F#X	2ff#T>	.	[
4C	.	.	.
*Xped	*	*	*
.	.	.	.
.	16qqee/LL	.	.
.	16qqff#/JJ	.	.
=33	=33	=33	=33
*ped	*	*	*
4BB	8gg#XL	.	.
.	8bJ	.	.
4e 4B 4G#X	4gg#	.	.
4d#X 4B 4A	8ff#XL	.	.
*Xped	*	*	*
.	8gg#J	.	.
=34	=34	=34	=34
*ped	*	*	*
4E	8eeL	.	.
.	16r	.	.
.	16bJk	.	.
4g#X 4e 4B 4G#X	2ee	.	.
4gn 4c#X 4A	.	.	.
*Xped	*	*	*
.	.	.	.
=35	=35	=35	=35
*ped	*	*	*
4D	8ffL	.	.
.	8aJ	.	.
4f 4d 4A	4dd	.	.
4d 4G#X 4E	8.bL	.	.
*Xped	*	*	*
.	16ccJk	.	.
=36	=36	=36	=36
.	16qqa/LL	.	.
.	16qqb/JJ	.	.
*	*^	*	*
!	!LO:N:vis=8.	!	!	!
4r	8aL	4r	.	.
.	8g#XJk	.	.	.
4E\ 4AA\	[>2a)	4c	.	.
4E\ 4AA\	.	4c	.	.
*	*v	*v	*	*
!!LO:LB:g=original
=||37	=||37	=||37	=||37
*k[f#c#g#]	*k[f#c#g#]	*	*
*^	*	*	*
!	!	!LO:TX:b:B:t=sotto voce.	!	!
2rcyy	4E\ 4AA\	4c# 4a]	.	.
.	4E\ 4AA\	(>4c#	.	.
4F#	4AA 4DD	8.eL	.	.
.	.	16dJk	.	.
=38	=38	=38	=38	=38
2ryy	4AA\	4c#< 4E<	.	.
.	4AA\ 4AAA	4c#< 4E<	.	.
4F#\	4AA\ 4DD	8.A<L	.	.
.	.	16B<Jk	.	.
=39	=39	=39	=39	=39
2ryy	4AA	4c#< 4E<	.	.
.	4GG#	4c#< 4B< 4E#X<	.	.
4A	4F# 4FF#	8.eL	.	<
.	.	16dJk	.	.
=40	=40	=40	=40	=40
2ryy	4EE#X\	4c#< 4G#<	.	.
.	4FF#\	4c#< 4A< 4C#<	.	.
4F#\	4DD#X\	8.A<L	.	.
.	.	16B<Jk	.	.
*v	*v	*	*	*
=41	=41	=41	=41
*ped	*	*	*
4EE\	8c#L 8A< 8E<	.	.
.	8d	.	<
4E	8d#X	.	.
.	8e	.	.
4d 4G#X 4E	8.cc#	.	.
*Xped	*	*	*
.	16bJk	.	.
.	.	.	[
=42	=42	=42	=42
*^	*	*	*
*	*	*^	*	*
4d	(>4E 4AA	4ee	8bL	.	.
.	.	.	8aJ	.	.
.	.	.	.	.	f
!	!	!	!LO:TX:a:t=P:problem:pionowy łuk	!	!
2ryy	4c# 4E	4.aa	2a	.	.
.	4c# 4A 4E#X	.	.	.	.
.	.	8gg#	.	.	.
*v	*v	*	*	*	*
!!LO:LB:g=original
=43	=43	=43	=43	=43
!	!LO:TX:a:t=P:problem:pionowy łuk	!	!	!
4c# 4A 4F#	2gg#	8f#L	.	.
.	.	8a	.	.
4d 4A 4F#	.	8ddJ	.	.
.	.	4ee	.	.
[<4AA)	8gg#L	.	.	.
.	8ff#J	8dd	.	.
=44	=44	=44	=44	=44
*^	*	*	*	*
!LO:TX:b:t=P:problem:pionowy łuk	!	!	!	!	!
2c# 2E	4AA]	8eeL	8cc#L	.	.
.	.	8dd#X	8gnJ	.	.
.	4AA#X	8ee	4.f#	.	.
.	.	8ee#X	.	.	.
4ryy	4FF#\	8ff#	.	.	>
.	.	8eenJ	8a#X	.	.
*v	*v	*	*	*	*
=45	=45	=45	=45	=45
*ped	*	*	*	*
4BBB	4.dd	8a#XL	.	.
.	.	8b	.	.
4d 4B	.	8g#	.	.
.	8cc#L	8an	.	.
4B 4G#	8ee	8f#	.	.
*Xped	*	*	*	*
.	8ddJ	[<8g#J	.	.
=46	=46	=46	=46	=46
*^	*	*	*	*
4ryy	4B 4C#	8b#XL	8g#L]	.	.
.	.	8cc#J	8e#XJ	.	]
4A#X	[<2F#	4.dd	2en	.	.
4f#	.	.	.	.	.
.	.	8cc#)	.	.	.
*	*	*v	*v	*	*
=47	=47	=47	=47	=47
2.F#]	4rAA	(>8d#XL	.	.
.	.	8f#	.	.
.	4BB	8g#	.	.
.	.	8an	.	.
.	4d#X 4A	8cc#	.	.
.	.	8bJ	.	.
*v	*v	*	*	*
=48	=48	=48	=48
4r	8aL	.	.
.	8B	.	.
*ped	*	*	*
4EE	8dn	.	.
.	8e	.	.
4dn [<4E	8f#	.	.
.	8qa/	.	.
.	8g#J)	.	.
!!LO:LB:g=original
=49	=49	=49	=49
*^	*	*	*
*	*	*^	*	*
(>4E]	2AA	(>4f#	8f#L	.	.
.	.	.	8c#	.	.
[<2E\	.	4ryy	8e	.	.
.	.	.	8dd	.	.
.	8e/L	8cc#L	8cc#	.	.
.	.	.	.	.	<
.	8dJ	8ff#J	8bJ	.	.
=50	=50	=50	=50	=50	=50
4c#/)	2E\]	8.eeL	8.bL	.	.
.	.	16aJk	16aJk	.	.
.	.	8qa/	.	.	.
4AA\	.	4.aa\	2ryy	.	.
.	.	.	.	.	[
(>4c#\ 4A\ 4E#X\	4ryy	.	.	.	.
.	.	[>8gg#\	.	.	.
*	*	*v	*v	*	*
*v	*v	*	*	*
=51	=51	=51	=51
4c# 4A 4F#	8gg#L]	.	.
.	8a	.	.
4d 4A 4F#	8dd	.	.
.	8ee	.	.
4d 4B 4G#	8.gg#	.	.
.	16ff#Jk	.	.
=52	=52	=52	=52
*^	*	*	*
4rayy	4c# 4A)	8ff#L	.	.
.	.	8ee	.	.
*clefG2	*	*	*	*
(>2f##X	4A#X	8dd#X	.	[
.	.	8cc#X	.	.
.	8BL	8dd#	.	.
.	.	8qff#/	.	.
.	[<8c#J	8eeJ)	.	.
*v	*v	*	*	*
=53	=53	=53	=53
*	*	*	*^
!	!	!	!LO:HP:b=2	!
4an\ 4d\ 4c#X\]	(>8.a#XL	.	>	.
.	16bk	.	.	.
4g#X\ 4d\ 4B\	8dd#X	.	.	.
.	8a#	.	.	<
4f#\ 4An\)	8cc#	.	]	.
.	8bJ)	.	.	.
!!LO:PB:g=original
=54	=54	=54	=54	=54
4e\ 4B\ 4G#\	(>8.eeL	.	.	.
.	16a#Xk	.	.	.
*clefF4	*	*	*	*
4BB'<	8cc#	.	.	.
.	8b	.	.	.
4r	8ee#X	.	.	.
.	8a#J	.	.	.
=55	=55	=55	=55	=55
*ped	*	*	*	*
4BBB'<	8cc#L	.	.	.
.	8b	.	.	.
.	.	.	.	[
*	*	*	*v	*v
4a'> 4d#X'> 4B'>	8ccc#)	.	.
.	16r	.	.
.	(>16bbk	.	>
4r	8aa#X	.	.
*Xped	*	*	*
.	8aanJ	.	.
=56	=56	=56	=56
*ped	*	*	*
4E'>	8gg#XL/	.	.
.	8ff#J	.	.
4gn> 4e> 4B>	12ffn/L	.	.
.	12ee	.	.
*Xped	*	*	*
.	12dd#XJ	.	.
4r	12ddn/L	.	.
.	12cc#	.	]
.	12ccnJ	.	.
=57	=57	=57	=57
*	*^	*	*
(>8eL	8.bL	4gn 4e	.	p
8d	.	.	.	.
.	16ccnJk	.	.	.
8cn	4.g	2e	.	.
8B	.	.	.	.
8A	.	.	.	.
8GnJ	8a	.	.	.
=58	=58	=58	=58	=58
8F#L	8.bL	4d	.	.
8E#X	.	.	.	.
.	16bJk	.	.	.
8Gn	4.d	2B	.	.
8F#	.	.	.	.
8D	.	.	.	.
8BBJ)	8gn	.	.	.
!!LO:LB:g=original
=59	=59	=59	=59	=59
*ped	*	*	*	*
4FF#'<	8e#XL	4en 4A#X	.	<
.	8f#	.	.	.
.	(<8qqf#/	.	.	.
4en 4A#X 4F#	8ggn))	2ryy	.	.
.	.	.	.	[
.	16rdd	.	.	.
.	(>16ff#k	.	.	.
4e 4A# 4F#	8ee#X	.	.	.
*Xped	*	*	*	*
.	8eenJ	.	.	>
*	*v	*v	*	*
=60	=60	=60	=60
*ped	*	*	*
4BB	8dd#X/L	.	.
.	8ddnJ	.	.
4dn 4F#	12cc#X/L	.	.
.	12ccn	.	.
.	12bJ	.	.
4r	12aL	.	.
*Xped	*	*	*
.	12g#	.	.
.	12f#J	.	]
=61	=61	=61	=61
*	*^	*	*
(>8eL	8bL	4gn 4e	.	.
.	.	.	.	<
8d	8ccnJk	.	.	.
8cn	4.g	2e	.	.
8B	.	.	.	.
8A	.	.	.	.
8GnJ	8a	.	.	.
=62	=62	=62	=62	=62
8D\L	8.bL	4gn 4d	.	.
8C#X	.	.	.	.
.	16bJk	.	.	.
8E	4.d	2B	.	.
8D	.	.	.	.
8BB	.	.	.	.
8GGnJ	8e	.	.	.
*	*v	*v	*	*
=63	=63	=63	=63
*ped	*	*	*
4DD'<)/	8e#XL 8cn 8F#<	.	[
.	8f#	.	.
.	(<8qqf#/	.	.
4cn 4A 4D	8een))	.	.
.	16r	.	.
!	!LO:TX:t=P:problem:początek łuku na dole	!	!
.	(>16dd#Xk	.	>
4c 4F# 4D	8ddn	.	.
*Xped	*	*	*
.	8cc#XJ	.	.
!!LO:LB:g=original
=64	=64	=64	=64
*ped	*	*	*
4GGn	8ccnL	.	.
.	8bJ	.	.
*	*Xtuplet	*	*
4B 4D	12a#X\L	.	.
.	12an	.	.
*Xped	*	*	*
.	12g#XJ	.	.
4r	12gn\L	.	.
.	12f#	.	.
.	12fnJ)	.	]
*	*tuplet	*	*
=65	=65	=65	=65
*	*^	*	*
(>8eL	(>8.bL	4gn 4e	.	.
8d	.	.	.	.
.	16ccnJk	.	.	.
8cn	4.g	2e	.	.
8B	.	.	.	.
8A	.	.	.	.
8GnJ	8a	.	.	.
=66	=66	=66	=66	=66
8F#L	8.bL	4d	.	.
8E#X	.	.	.	.
.	16bJk	.	.	.
8Gn	4.d	2B	.	.
8F#	.	.	.	.
8D	.	.	.	.
8BBJ	8gn	.	.	<
=67	=67	=67	=67	=67
*ped	*	*	*	*
4FF#'<)	8e#XL	4en 4A#X	.	.
.	8f#	.	.	.
.	8qf#/	.	.	[
4e 4A#X 4F#	8ggn)	2ryy	.	.
.	16rdd	.	.	>
.	(>16ff#k	.	.	.
4e 4A# 4F#	8ee#X	.	.	.
*Xped	*	*	*	*
.	8eenJ	.	.	.
*	*v	*v	*	*
=68	=68	=68	=68
*ped	*	*	*
4BB	8dd#X/L	.	.
.	8ddnJ	.	.
4dn 4F#	16cc#/LL	.	.
.	16ccn	.	.
.	16b	.	.
*Xped	*	*	*
.	16a#XJJ	.	.
4r	20anLL	.	.
.	20g#	.	.
.	20gn	.	.
.	20f#	.	.
.	20fnJJ	.	]
!!LO:LB:g=original
=69	=69	=69	=69
*	*^	*	*
(>8eL	8bL	4gn 4e	.	.
.	.	.	.	<
8d	8ccnJ	.	.	.
8cn	4.g	2e	.	.
8B	.	.	.	.
8A	.	.	.	.
8GnJ	8a	.	.	.
=70	=70	=70	=70	=70
8F#L	8.bL	4d#X	.	.
8E#X	.	.	.	.
.	16bJk	.	.	.
8G#X	4d#	2B	.	.
8F#	.	.	.	.
*	*	*	*	*^
.	.	.	.	.	<
8D#X	4g#	.	.	.	.
8BBJ)	.	.	.	.	.
.	.	.	.	[	.
*	*	*	*	*v	*v
=71	=71	=71	=71	=71
*ped	*	*	*	*
4FF#'<	8.f#L 8.e 8.A#X	4ryy	.	.
!	!	!	!	!LO:HP:a
.	16eeJk	.	.	>
4c# 4F#	4.dd#X	4a#X 4e	.	.
(>4F#	.	4a# 4e	.	.
.	.	.	.	]
*Xped	*	*	*	*
.	8cc#)	.	.	.
*	*v	*v	*	*
=72	=72	=72	=72
8G#L	8bL 8d#X	.	<
8F#J	16r	.	.
.	(>16dd#XJk 16f#	.	.
!LO:TUP:a	!	!	!
12EL	4ff# 4b	.	.
12D#X	.	.	.
12C#J	.	.	.
!LO:TUP:a	!	!	!
12BB\L	4bb 4dd#)	.	.
12AA#X	.	.	[
12GG#J)	.	.	.
=73	=73	=73	=73
*	*^	*	*
*ped	*	*	*	*
4FF#'<	(>8.f#L 8.e 8.A#X	4ryy	.	.
.	16eeJk	.	.	.
*	*	*	*	*^
!	!	!	!	!LO:HP:a	!
4c# 4F#	4.dd#X	4a#X 4e	.	>	.
.	.	.	.	.	<
4F#	.	4a# 4e	.	.	.
*Xped	*	*	*	*	*
.	8cc#)	.	.	]	.
.	.	.	.	.	[
*	*	*	*	*v	*v
*	*v	*v	*	*
!!LO:LB:g=original
=74	=74	=74	=74
(>8G#L	8bL 8d#X	.	f
8F#J	16r	.	.
.	(>16dd#XJk 16f#	.	.
!LO:TUP:a	!	!	!
12EL	4ff# 4b	.	.
12D#X	.	.	.
12C#J	.	.	.
!LO:TUP:a	!	!	!
12BB\L	4bb 4dd#)	.	.
12GG#	.	.	.
12FF#J)	.	.	.
=75	=75	=75	=75
*ped	*	*	*
4BBB'<	8bL 8d#X	.	f
.	16r	.	[
.	(>16dd#XJk 16f#	.	.
4d#X'> 4F#'>	4ff# 4b	.	.
*Xped	*	*	*
4r	4bb 4dd#)	.	.
=76	=76	=76	=76
*ped	*	*	*
4BB'<	(>8bL 8d#X	.	.
.	8dd#X 8f##X	.	.
4d#X 4B 4F##X	8ff##X 8b	.	.
*Xped	*	*	*
.	8bbJ 8dd#)	.	.
*	*8va	*	*
.	(<8qbb/	.	.
4r	8bbb 8ddd#y)	.	.
*	*X8va	*	*
.	8r	.	.
=77	=77	=77	=77
!	!LO:TX:a:B:t=loco.	!	!
2.rF	(>8b\L	.	p <
.	8f##X	.	.
.	8c##X	.	.
.	8d#X	.	.
.	8f#X	.	.
.	8f##XJ	.	.
=78	=78	=78	=78
2.rF	8bL	.	.
.	8f##X	.	.
.	8b	.	.
.	8dd#X	.	.
.	8ff#X	.	.
.	8eeJ)	.	[
!!LO:PB:g=original
=||79	=||79	=||79	=||79
*k[f#c#g#d#a#]	*k[f#c#g#d#a#]	*	*
4r	(>8dd#/L	.	.
.	8a#J	.	.
4d# 4B 4G#	4b/	.	.
4c##X 4G# 4E	4g#	.	.
=80	=80	=80	=80
4r	8a#L	.	.
.	8f##XJ	.	.
4c#X 4A# 4D#	2d#)	.	.
4c# 4F##X 4D#	.	.	.
=81	=81	=81	=81
4r	(>8e#XL	.	<
.	8f##XJ	.	.
4c# 4E#X 4D#	4g#	.	.
4c# 4F##X 4D#	4a#	.	.
=82	=82	=82	=82
*ped	*	*	*
4GG#	8bL	.	.
.	8eeJ	.	.
4B 4D#	2dd#)	.	.
.	.	.	[
4GGn	.	.	.
*Xped	*	*	*
.	.	.	.
=83	=83	=83	=83
*ped	*	*	*
4FF#	(>8ff#L	.	.
.	8cc#J	.	.
4d# 4B 4F#	4dd#	.	.
4g# 4d# 4B	4b	.	.
*Xped	*	*	*
.	.	.	.
!!LO:LB:g=original
=84	=84	=84	=84
*	*^	*	*
4r	8cc#/L	4ryy	.	>
.	8a#J	.	.	.
4c# 4F#	2f#)	4e	.	.
.	.	.	.	]
4e 4A# 4F#	.	4ryy	.	.
*	*v	*v	*	*
=85	=85	=85	=85
4r	(>8g#\L	.	.
.	8a#J	.	.
4e 4G# 4F#	4b	.	.
4e 4A# 4F#	4cc#	.	.
=86	=86	=86	=86
4BB	8.dd#L	.	<
.	16ee#XJk	.	.
.	8qee#/	.	.
*ped	*	*	*
!	!LO:TX:b:B:t=ten	!	!
4d# 4G##X 4E#X	2ee#T	.	[
4BB	.	.	.
*Xped	*	*	*
.	.	.	.
.	16qqdd#/LL	.	.
.	16qqee#/JJ	.	.
=87	=87	=87	=87
*ped	*	*	*
4AA#	8ff##XL	.	.
.	8a#J	.	.
4d# 4A# 4F##X	4ff##	.	.
4c##X 4A# 4G#	8ee#XL	.	.
*Xped	*	*	*
.	8ff##J)	.	.
=88	=88	=88	=88
*ped	*	*	*
4D#	8dd#L	.	.
.	16r	.	.
.	(>16a#Jk	.	.
4f##X 4d# 4A# 4F##X	2dd#)	.	.
*Xped	*	*	*
4f#X 4B#X 4G#	.	.	.
!!LO:LB:g=original
=89	=89	=89	=89
*ped	*	*	*
4C#	(>8eeL	.	.
.	8g#J	.	.
4e 4A# 4G#	4cc#	.	.
4c# 4F##X 4D#	8.a#\L	.	.
*Xped	*	*	*
.	16bJk	.	.
=90	=90	=90	=90
.	16qqg#/LL	.	.
.	16qqa#/JJ	.	.
*ped	*	*	*
4GG#	8g#L)	.	.
.	16r	.	.
.	(>16f##XJk	.	.
4B 4D#	[<2g#)	.	.
4B 4G#	.	.	.
*Xped	*	*	*
.	.	.	.
=||91	=||91	=||91	=||91
*k[]	*k[]	*	*
*ped	*	*	*
4BB-X	4a-X]	.	.
4d 4B-X 4A-X	(>8fL	.	.
.	8g	.	.
4d 4B- 4A-	8a-	.	.
*Xped	*	*	*
.	8ffJ	.	.
=92	=92	=92	=92
*ped	*	*	*
4E-X	8ee-X/L	.	.
.	8a-XJ	.	.
4e-X 4B-X 4G	4g	.	.
4e- 4B- 4G	8.cc/L	.	.
*Xped	*	*	*
.	16b-XJk	.	.
=93	=93	=93	=93
*ped	*	*	*
4BB-X	12a-XL	.	.
.	12b-X	.	.
.	12a-J	.	.
4d 4B-X 4A-X	8fL	.	.
.	8g	.	.
4d 4B- 4A-	8a-	.	.
*Xped	*	*	*
.	8ffJ	.	.
!!LO:LB:g=original
=94	=94	=94	=94
*ped	*	*	*
4EE-X	8ee-X/L	.	.
.	8a-XJ	.	.
4e-X 4B-X 4G	4.g	.	.
4e- 4B- 4G	.	.	.
*Xped	*	*	*
.	8f#X	.	.
=95	=95	=95	=95
*ped	*	*	*
4AA	4g	.	.
4c#X 4A 4G	8enL	.	.
.	8f#X	.	.
4c# 4A 4G	8g	.	.
*Xped	*	*	*
.	8eeJ	.	.
=96	=96	=96	=96
*ped	*	*	*
4AA	8ddL	.	.
.	8g	.	.
4d 4A 4F#X	8f#X	.	.
.	8g	.	.
4d 4B 4Fn	8g#X	.	.
*Xped	*	*	*
.	8bJ	.	.
=97	=97	=97	=97
*ped	*	*	*
4AA	8.aL	.	.
.	16d#Xk	.	.
4c#X 4G	8.f#X	.	.
.	16ek	.	.
4c# 4G	8.g	.	.
*Xped	*	*	*
.	.	.	.
.	16BJk	.	.
=98	=98	=98	=98
*ped	*	*	*
4AAA	8.AL)	.	<
.	(>16ek	.	.
4A 4F#X	8.d	.	.
.	16gk	.	.
4d 4A 4F#	8.f#X	.	.
*Xped	*	*	*
.	16bJk	.	.
.	.	.	[
!!LO:LB:g=original
=99	=99	=99	=99
*ped	*	*	*
4AA	12aL	.	.
.	12b	.	.
.	12aJ	.	.
4c#X 4E	8.g#XL	.	.
.	16gnk	.	.
4g 4c# 4A	8.a	.	.
*Xped	*	*	*
.	.	.	.
.	16eeJk	.	.
=100	=100	=100	=100
*ped	*	*	*
4DD	8.ddL	.	.
.	16gk	.	.
4c 4A 4D	8.f#X	.	.
.	16gk	.	.
[>4c [>4F#X [<4D	8.g#X	.	.
*Xped	*	*	*
.	.	.	.
.	16bJk)	.	.
=101	=101	=101	=101
4c] 4F#X] 4D]	(>8.aL	.	.
.	16e#Xk	.	.
4c 4A 4D#X	8.f#X	.	.
.	16gk	.	.
[>4c [>4F# [<4D#	8.g#X	.	.
.	16bJk	.	.
=102	=102	=102	=102
*^	*	*	*
*	*^	*	*	*
2c]	(>4F#X]	2D#X]	12aL	.	.
.	.	.	12b	.	.
.	.	.	12aJ	.	.
.	4A)	.	8.f#XL	.	.
.	.	.	16gk	.	.
4r	4ryy	4ryy	8.g#X	.	.
.	.	.	16bJk	.	.
*	*v	*v	*	*	*
*v	*v	*	*	*
=103	=103	=103	=103
8qE/	.	.	.
!	!	!	!LO:HP:b=2
(>8.eL	8.aL	.	>
16BJK	16gnk	.	.
4c	8.g	.	.
.	16fk	.	.
4A	8.f	.	.
.	16d#XJk	.	]
!!LO:PB:g=original
=104	=104	=104	=104
*^	*	*	*
*	*^	*	*	*
8BL/	2ryy	2ryy	8.d#XL	.	.
8G#XJ	.	.	.	.	.
.	.	.	16eJk	.	.
[>2E^>)	.	.	2e)	.	]
.	4d/ 4G#X/	4BB 4EE	.	.	.
*	*v	*v	*	*	*
=105	=105	=105	=105	=105
4d 4G#X 4E	4E] 4BB 4EE	(>8f#XL	.	.
.	.	8g#XJ	.	.
2ryy	4r	4a	.	<
.	4d 4G# 4E	4b/	.	.
*v	*v	*	*	*
=106	=106	=106	=106
*ped	*	*	*
4AA	8ccL	.	.
.	8ff	.	.
4c 4E	8ee	.	.
.	8cc	.	.
4AA-X	8ee	.	.
*Xped	*	*	*
.	.	.	.
.	8ff#XJ	.	.
.	.	.	[
=107	=107	=107	=107
*ped	*	*	*
4GG	8ggL	.	.
.	8dd	.	.
4e 4c 4G	8ee	.	.
.	8b	.	.
4a 4e 4c	8cc	.	.
*Xped	*	*	*
.	.	.	.
.	8aJ	.	.
=108	=108	=108	=108
*	*^	*	*
4r	8dd/L	4ryy	.	.
.	8bJ	.	.	.
4d 4G	2g	4f	.	.
4d 4G	.	4f)	.	.
*	*v	*v	*	*
!!LO:LB:g=original
=109	=109	=109	=109
4r	(>8aL	.	.
.	8bJ	.	.
4f 4A 4G	4cc	.	.
4f 4B 4G	4dd	.	.
=110	=110	=110	=110
*ped	*	*	*
4C	8.eeL	.	<
.	16ff#XJk	.	.
.	16qqee/LL	.	.
.	16qqff#/JJ	.	.
4e 4A#X 4F#X	2ff#T	.	.
4C	.	.	.
*Xped	*	*	*
.	.	.	[
.	16qqee/LL	.	.
.	16qqff#/JJ	.	.
=111	=111	=111	=111
*ped	*	*	*
4BB	8gg#XL)	.	.
.	(>8bJ	.	.
4e 4B 4G#X	4gg#	.	.
4d#X 4B 4A	8ff#XL	.	.
*Xped	*	*	*
.	.	.	.
.	8gg#J	.	.
=112	=112	=112	=112
*ped	*	*	*
4E	8eeL	.	.
.	16r	.	.
.	16bJk	.	.
4g#X 4e 4B 4G#X	2ee	.	.
*Xped	*	*	*
4gn 4c#X 4A	.	.	.
=113	=113	=113	=113
*ped	*	*	*
4D	8ffL	.	.
.	8aJ	.	.
4f 4B 4A	4dd	.	.
4d 4G#X 4E	8.bL	.	.
*Xped	*	*	*
.	.	.	.
.	16ccJk	.	.
!!LO:LB:g=original
=114	=114	=114	=114
.	16qqa/LL	.	.
.	16qqb/JJ	.	.
*^	*	*	*
*ped	*	*	*	*
4ryy	2D#X	8aL	.	.
.	.	16r	.	.
.	.	16g#XJk	.	.
4f#X\ 4c\	.	[<2a	.	.
4f#\ 4c\	4ryy	.	.	.
*v	*v	*	*	*
=115	=115	=115	=115
4DD#X'<	2.a_<	.	.
4f#X 4c	.	.	.
4f# 4c	.	.	.
=116	=116	=116	=116
4D#X'>	2.a])	.	.
4f#X 4c	.	.	.
4f# 4c	.	.	.
=117	=117	=117	=117
4DD#X'<	4r	.	.
4r	(>8A<L	.	<
.	8c	.	.
4r	8.cc	.	.
*Xped	*	*	*
.	16bJk	.	.
=118	=118	=118	=118
*	*^	*	*
*ped	*	*	*	*
4D#X	4ff#X	8.bL	.	.
.	.	16aJk	.	[
!	!	!LO:TX:a:t=P:problem:pionowy łuk	!	!
4f#X 4c 4A	2ryy	4aa 4a)	.	.
4f# 4c 4A	.	4r	.	.
*Xped	*	*	*	*
.	.	.	.	.
*	*v	*v	*	*
!!LO:LB:g=original
=119	=119	=119	=119
*ped	*	*	*
4DD#X	2.rdd	.	.
4fn 4c 4A	.	.	.
4f 4c 4A	.	.	.
=120	=120	=120	=120
4D#X	2.rdd	.	.
4f 4c 4A	.	.	.
4f 4c 4A	.	.	.
=121	=121	=121	=121
4DD#X'<	8r	.	.
.	(<8AL	.	<
4r	8c	.	.
.	8f	.	.
4r	8.cc	.	.
*Xped	*	*	*
.	.	.	.
.	16bJk)	.	.
=122	=122	=122	=122
*	*^	*	*
*ped	*	*	*	*
4D#X	(4ff	8.bL	.	.
.	.	16aJk	.	[
!	!	!LO:TX:a:t=P:problem:pionowy łuk	!	!
4f 4c 4A	2ryy	4ccc 4a)	.	.
4f 4c 4A	.	4r	.	.
*Xped	*	*	*	*
.	.	.	.	.
*	*v	*v	*	*
=123	=123	=123	=123
8qE/	.	.	.
(>8.eL	8r	.	.
.	16r	.	.
16BJ	(>16gKL	.	.
4c	8.g	.	.
.	16fk	.	.
4A	8.f	.	.
.	16d#XJk	.	.
=124	=124	=124	=124
*^	*	*	*
*	*^	*	*	*
8B\L	2ryy	2ryy	8.d#XL	.	.
8G#XJ	.	.	.	.	.
.	.	.	16eJk	.	.
[>2E^>)	.	.	[<2e)	.	.
.	4d/ 4G#/	4BB 4EE	.	.	.
!!LO:LB:g=original
=125	=125	=125	=125	=125	=125
2.E/]	4r	4rc	2.e]	.	.
.	4d/ 4G#/	4BB\ 4EE	.	.	.
.	4d/ 4G#/	4BB\ 4EE	.	.	.
=126	=126	=126	=126	=126	=126
8B\L	2ryy	2ryy	(>8.d#XL	.	.
8G#XJ	.	.	.	.	.
.	.	.	16eJk	.	.
2E	.	.	2e^<)	.	.
.	4d/ 4G#/	4BB 4EE	.	.	.
=127	=127	=127	=127	=127	=127
8B\L	2ryy	2ryy	(>8.d#XL	.	.
8G#XJ	.	.	.	.	.
.	.	.	16eJk	.	.
2E	.	.	[<2e^<	.	.
.	4d/ 4G#/	4BB 4EE	.	.	.
*	*v	*v	*	*	*
=128	=128	=128	=128	=128
4d 4G#X	4BB 4EE	2.e])	.	.
4d 4G#	4BB 4EE	.	.	.
4d^> 4G#^>	4BB 4EE	.	.	.
*v	*v	*	*	*
=129	=129	=129	=129
*	*^	*	*
*ped	*	*	*	*
4EEE	(>8fL	4d 4G#	.	<
.	8f#X	.	.	.
4r	8gn	2ryy	.	.
.	8g#X	.	.	.
.	.	.	.	[
4d 4E	8ffn	.	.	.
*Xped	*	*	*	*
.	8g#J	.	.	.
*	*v	*v	*	*
=130	=130	=130	=130
*^	*	*	*
(>2AA	4ryy	8b\L	.	.
.	.	8aJ	.	.
.	.	8qa/	.	.
.	4c 4E)	4aa)	.	.
4r	4r	4r	.	.
*v	*v	*	*	*
==	==	==	==
*-	*-	*-	*-
!!title: @{OTL}; @{OPS} @{ONM} publisher: @{PPR}
!!!RDF**kern: > = above
!!!RDF**kern: < = below
!!!RDF**kern: N = linked
!!!RDF**dynam: < = "cres." , fontstyle = "bold"
!!!ENC: Zofia Trojan
!!!END: 2018-06-18
!!!EED: Tomasz Sierawski
!!!EST: 2018-06-21
!!!EED2: Marta Lawrence
!!!EST2: 2019-05-23
!!!rism-genre: Mazurka
!!!rism-key: A minor
!!!rism-opus: op.  59, no. 1
!!!rism-title: Mazurka in A minor op.  59, no. 1
!!!rism-permalink: https://opac.rism.info/search?id=300605158&View=rism
!!!rism-773a-OPR: 300605157
!!!rism-parent-permalink: https://opac.rism.info/search?id=300605157&View=rism
